icons/arrow-box-in-bottom-right.svg

<svg xmlns="http://www.w3.org/2000/svg" width="24" height="24" viewBox="0 0 24 24">
  <path d="M15,2 L15.1166211,2.00672773 C15.6139598,2.06449284 16,2.48716416 16,3 C16,3.55228475 15.5522847,4 15,4 L15,4 L5,4 L4.88337887,4.00672773 C4.38604019,4.06449284 4,4.48716416 4,5 L4,5 L4,19 L4.00672773,19.1166211 C4.06449284,19.6139598 4.48716416,20 5,20 L5,20 L19,20 L19.1166211,19.9932723 C19.6139598,19.9355072 20,19.5128358 20,19 L20,19 L20,8 L20.0067277,7.88337887 C20.0644928,7.38604019 20.4871642,7 21,7 C21.5522847,7 22,7.44771525 22,8 L22,8 L22,19 L21.9949073,19.1762728 C21.9036609,20.75108 20.5976809,22 19,22 L19,22 L5,22 L4.82372721,21.9949073 C3.24891996,21.9036609 2,20.5976809 2,19 L2,19 L2,5 L2.00509269,4.82372721 C2.09633912,3.24891996 3.40231912,2 5,2 L5,2 L15,2 Z M9,16 C8.98877747,16 8.97759811,15.9998151 8.96646481,15.9994483 C8.94940903,15.9988772 8.93207691,15.997855 8.91477577,15.996384 C8.90387352,15.995493 8.89360268,15.9944597 8.88337887,15.9932723 L8.84653191,15.9882226 C8.83886575,15.9870384 8.83121072,15.9857649 8.82356849,15.9844021 L8.80118228,15.9802356 C8.77683175,15.9753235 8.75280168,15.9695267 8.72912705,15.9628803 C8.71523112,15.9589028 8.70150571,15.9547331 8.68785748,15.9502619 C8.66820232,15.9438775 8.6484208,15.9366843 8.62894148,15.928896 C8.61120435,15.9218036 8.5939015,15.914321 8.57677845,15.9063266 C8.5561086,15.8966234 8.53570605,15.8862061 8.51572305,15.8751242 C8.50360556,15.8685012 8.49138689,15.8613931 8.47929125,15.8540045 C8.45372505,15.8382813 8.42886931,15.8215099 8.4048407,15.8036865 C8.36567442,15.774687 8.32828727,15.7425008 8.29289322,15.7071068 L8.38519363,15.7887351 C8.32033919,15.7381101 8.2618899,15.6796608 8.21126487,15.6148064 C8.20622849,15.6084584 8.20123565,15.6019058 8.19633458,15.5953066 C8.17849009,15.5711307 8.1617187,15.546275 8.14606743,15.5206602 C8.13860692,15.5086131 8.13149883,15.4963944 8.12467117,15.4840621 C8.11379392,15.4642939 8.10337664,15.4438914 8.09365378,15.4230991 C8.08567905,15.4060985 8.07819642,15.3887956 8.07122549,15.371336 C8.06331574,15.3515792 8.05612249,15.3317977 8.04954668,15.3117364 C8.04472872,15.2968513 8.04009773,15.2814633 8.03584514,15.265993 C8.02983363,15.2444365 8.0246398,15.2227461 8.02016515,15.2007941 C8.01670217,15.1833753 8.01362808,15.165949 8.0110178,15.1484669 C8.00376119,15.1003621 8,15.0506203 8,15 L8.00361597,15.0852242 C8.00214496,15.0679231 8.00112277,15.050591 8.00054939,15.0332468 L8,15 L8,7 L8.00672773,6.88337887 C8.06449284,6.38604019 8.48716416,6 9,6 C9.55228475,6 10,6.44771525 10,7 L10,7 L9.999,12.585 L17.2928932,5.29289322 L17.3871006,5.20970461 C17.7793918,4.90467972 18.3466228,4.93240926 18.7071068,5.29289322 C19.0976311,5.68341751 19.0976311,6.31658249 18.7071068,6.70710678 L18.7071068,6.70710678 L11.414,14 L17,14 L17.1166211,14.0067277 C17.6139598,14.0644928 18,14.4871642 18,15 C18,15.5522847 17.5522847,16 17,16 L17,16 Z"/>
</svg>

<svg xmlns="http://www.w3.org/2000/svg" viewBox="0 0 24 24">
  <path d="M15 2h.12A1 1 0 0 1 15 4H4.88A1 1 0 0 0 4 5v14.12A1 1 0 0 0 5 20h14.12a1 1 0 0 0 .88-1V7.88A1 1 0 0 1 22 8v11.18A3 3 0 0 1 19 22H4.82A3 3 0 0 1 2 19V4.82A3 3 0 0 1 5 2h10zM9 16a1.02 1.02 0 0 1-.12 0l-.03-.01h-.03l-.02-.01a1 1 0 0 1-.5-.27l.09.08A1 1 0 0 1 8 15v.09a1 1 0 0 1 0-.06V6.88A1 1 0 0 1 10 7v5.59l7.3-7.3.09-.08a1 1 0 0 1 1.32 1.5L11.4 14h5.71a1 1 0 0 1-.12 2z"/>
</svg>
